Newaita-dark/apps/48/opendesktop.svg

<svg height="48pt" viewBox="0 0 48 48" width="48pt" xmlns="http://www.w3.org/2000/svg" xmlns:xlink="http://www.w3.org/1999/xlink"><linearGradient id="a" gradientUnits="userSpaceOnUse" x1="23.814786" x2="23.814786" y1="4.34415449995" y2="42.0508995"><stop offset="0" stop-color="#4dd0e1"/><stop offset="1" stop-color="#26c6da"/></linearGradient><linearGradient id="b" gradientUnits="userSpaceOnUse" x1="23.814786" x2="23.814786" y1="4.34415449995" y2="42.0508995"><stop offset="0" stop-color="#f06292"/><stop offset="1" stop-color="#ec407a"/></linearGradient><linearGradient id="c" gradientUnits="userSpaceOnUse" x1="23.814786" x2="23.814786" y1="4.34415449995" y2="42.0508995"><stop offset="0" stop-color="#ff8a65"/><stop offset="1" stop-color="#ff7043"/></linearGradient><linearGradient id="d"><stop offset="0" stop-opacity=".313726"/><stop offset=".222222" stop-opacity=".27451"/><stop offset="1" stop-opacity="0"/></linearGradient><radialGradient id="e" cx="450.908936" cy="189.579361" gradientTransform="matrix(.00000026 -.117199 -.210958 -.00000015 66.784728 95.392994)" gradientUnits="userSpaceOnUse" r="21.166656" xlink:href="#d"/><radialGradient id="f" cx="450.908936" cy="189.579361" gradientTransform="matrix(-.00000026 .117199 .210958 .00000015 -19.155178 -11.291223)" gradientUnits="userSpaceOnUse" r="21.166656" xlink:href="#d"/><radialGradient id="g" cx="450.908936" cy="189.579361" gradientTransform="matrix(-.00000026 -.117199 .210958 -.00000015 -19.155178 95.392994)" gradientUnits="userSpaceOnUse" r="21.166656" xlink:href="#d"/><radialGradient id="h" cx="450.908936" cy="189.579361" gradientTransform="matrix(.00000026 .117199 -.210958 .00000015 66.784725 -11.291224)" gradientUnits="userSpaceOnUse" r="21.166656" xlink:href="#d"/><linearGradient id="i" gradientTransform="matrix(.0200401 0 0 .093759 18.698079 20.158175)" gradientUnits="userSpaceOnUse" x1="255.323059" x2="255.323044" y1="233.5" y2="254.666656"><stop offset="0" stop-opacity=".27451"/><stop offset="1" stop-opacity="0"/></linearGradient><linearGradient id="j" gradientUnits="userSpaceOnUse" x1="23.814786" x2="23.814786" y1="4.34415449995" y2="42.0508995"><stop offset="0" stop-color="#ffb74d"/><stop offset="1" stop-color="#ffa726"/></linearGradient><path d="m23.816406 4.34375c-5.019531 0-9.570312 1.941406-12.941406 5.117188l4.050781 4.054687c.285157-.152344.605469-.242187.949219-.242187h15.878906c.34375 0 .667969.089843.949219.242187l4.050781-4.054687c-3.371094-3.175782-7.921875-5.117188-12.9375-5.117188zm0 0" fill="url(#a)"/><path d="m10.078125 10.257812c-3.175781 3.371094-5.117187 7.921876-5.117187 12.941407 0 5.015625 1.941406 9.566406 5.117187 12.9375l4.054687-4.050781c-.152343-.28125-.242187-.605469-.242187-.949219v-15.878907c0-.34375.089844-.667968.242187-.949218zm0 0" fill="url(#b)"/><path d="m37.550781 10.257812-4.054687 4.050782c.15625.28125.242187.605468.242187.949218v15.878907c0 .34375-.085937.667969-.242187.949219l4.054687 4.050781c3.175781-3.371094 5.117188-7.921875 5.117188-12.9375 0-5.019531-1.941407-9.570313-5.117188-12.941407zm0 0" fill="url(#c)"/><path d="m27.289062 42.050781h3.96875v-1.984375h-3.96875zm0 0" fill="url(#e)"/><path d="m20.339844 42.050781h-3.96875v1.984375h3.96875zm0 0" fill="url(#f)"/><path d="m20.339844 42.050781h-3.96875v-1.984375h3.96875zm0 0" fill="url(#g)"/><path d="m27.289062 42.050781h3.96875v1.984375h-3.96875zm0 0" fill="url(#h)"/><path d="m20.339844 41.554688h6.949218v2.480468h-6.949218zm0 0" fill="url(#i)"/><path d="m32.703125 32.878906c-.28125.15625-.605469.242188-.949219.242188h-11.375l-5.128906 4.394531c-.363281.3125-.929688.054687-.929688-.425781v-3.605469l-3.445312 3.449219c3.371094 3.175781 7.921875 5.117187 12.941406 5.117187 5.015625 0 9.566406-1.941406 12.9375-5.117187zm0 0" fill="url(#j)"/><g fill="#fff" fill-opacity=".392157"><path d="m23.816406 4.34375c-5.019531 0-9.570312 1.941406-12.941406 5.117188l.390625.390624c3.328125-2.964843 7.71875-4.761718 12.550781-4.761718 4.828125 0 9.21875 1.796875 12.550782 4.761718l.386718-.390624c-3.371094-3.175782-7.921875-5.117188-12.9375-5.117188zm0 0"/><path d="m10.078125 10.257812c-3.175781 3.371094-5.117187 7.921876-5.117187 12.941407 0 .121093.003906.246093.003906.371093.09375-4.871093 2.015625-9.28125 5.113281-12.566406l3.855469 3.851563c.039062-.195313.105468-.378907.199218-.546875zm3.8125 20.878907v.742187c0 .140625.015625.273438.042969.40625l.199218-.199218c-.152343-.28125-.242187-.605469-.242187-.949219zm0 0"/><path d="m37.550781 10.257812-4.054687 4.050782c.09375.167968.160156.351562.199218.546875l3.855469-3.851563c3.097657 3.285156 5.019531 7.695313 5.113281 12.566406.003907-.125.003907-.25.003907-.371093 0-5.019531-1.941407-9.570313-5.117188-12.941407zm-3.8125 20.878907c0 .34375-.085937.667969-.242187.949219l.199218.199218c.027344-.132812.042969-.265625.042969-.40625zm0 0"/><path d="m32.703125 32.878906c-.28125.15625-.605469.242188-.949219.242188h-11.375l-5.128906 4.394531c-.363281.3125-.929688.054687-.929688-.425781v.742187c0 .480469.566407.742188.929688.429688l5.128906-4.398438h11.375c.34375 0 .667969-.085937.949219-.238281l3.664063 3.664062c.128906-.117187.257812-.234374.386718-.355468zm-18.382813.605469-3.445312 3.449219c.128906.121094.257812.238281.390625.355468l3.054687-3.058593zm0 0"/></g><path d="m11.265625 9.105469c-.132813.117187-.261719.238281-.390625.355469l4.050781 4.054687c.285157-.152344.605469-.242187.949219-.242187h15.878906c.34375 0 .667969.089843.949219.242187l4.050781-4.054687c-.128906-.117188-.257812-.238282-.386718-.355469l-3.664063 3.664062c-.28125-.152343-.605469-.238281-.949219-.238281h-15.878906c-.34375 0-.664062.085938-.949219.238281zm2.667969 5.003906c-.027344.132813-.042969.265625-.042969.40625v.742187c0-.34375.089844-.667968.242187-.949218zm19.761718 0-.199218.199219c.15625.28125.242187.605468.242187.949218v-.742187c0-.140625-.015625-.273437-.042969-.40625zm-28.730468 8.714844c0 .125-.003906.25-.003906.375 0 5.015625 1.941406 9.566406 5.117187 12.9375l4.054687-4.050781c-.09375-.167969-.160156-.351563-.199218-.546876l-3.855469 3.855469c-3.097656-3.289062-5.019531-7.699219-5.113281-12.570312zm37.699218 0c-.09375 4.871093-2.015624 9.28125-5.113281 12.570312l-3.855469-3.855469c-.039062.195313-.105468.378907-.199218.546876l4.054687 4.050781c3.175781-3.371094 5.117188-7.921875 5.117188-12.9375 0-.125 0-.25-.003907-.375zm-31.398437 13.71875-.390625.390625c3.371094 3.175781 7.921875 5.117187 12.941406 5.117187 5.015625 0 9.566406-1.941406 12.9375-5.117187l-.386718-.390625c-3.332032 2.964843-7.722657 4.765625-12.550782 4.765625-4.832031 0-9.222656-1.800782-12.550781-4.765625zm0 0" fill-opacity=".235294"/><path d="m960.065849 175.101398c-202.342893 0-385.789951 78.260247-521.682493 206.279525l163.291502 163.448967c11.494966-6.141146 24.407119-9.762848 38.264065-9.762848h640.096387c13.856946 0 26.926564 3.621702 38.264065 9.762848l163.291501-163.448967c-135.892541-128.019278-319.3396-206.279525-521.525027-206.279525zm0 0" fill="none" stroke="#212121" stroke-linecap="round" stroke-width="11.338583" transform="scale(.0248071)"/><path d="m406.260438 413.503841c-128.019278 135.892542-206.279525 319.3396-206.279525 521.682493 0 202.185427 78.260247 385.632485 206.279525 521.525027l163.448967-163.291501c-6.141146-11.337501-9.762848-24.40712-9.762848-38.264065v-640.096388c0-13.856945 3.621702-26.926564 9.762848-38.264064zm0 0" fill="none" stroke="#212121" stroke-linecap="round" stroke-width="11.338583" transform="scale(.0248071)"/><path d="m1513.713795 413.503841-163.448967 163.291502c6.298611 11.3375 9.762848 24.407119 9.762848 38.264064v640.096388c0 13.856945-3.464237 26.926564-9.762848 38.264065l163.448967 163.291501c128.019277-135.892542 206.279525-319.3396 206.279525-521.525027 0-202.342893-78.260248-385.789951-206.279525-521.682493zm0 0" fill="none" stroke="#212121" stroke-linecap="round" stroke-width="11.338583" transform="scale(.0248071)"/><path d="m1318.299375 1325.385313c-11.337501 6.298611-24.407119 9.762847-38.264065 9.762847h-458.538913l-206.75192 177.148447c-14.644272 12.597223-37.476738 2.204514-37.476738-17.163716v-145.340459l-138.884383 139.041848c135.892542 128.019277 319.3396 206.279524 521.682493 206.279524 202.185427 0 385.632486-78.260247 521.525027-206.279524zm0 0" fill="none" stroke="#212121" stroke-linecap="round" stroke-width="11.338583" transform="scale(.0248071)"/></svg>

<?xml version="1.0" encoding="UTF-8"?>
<svg xmlns="http://www.w3.org/2000/svg" xmlns:xlink="http://www.w3.org/1999/xlink" width="48pt" height="48pt" viewBox="0 0 48 48" version="1.1">
<defs>
<linearGradient id="linear0" gradientUnits="userSpaceOnUse" x1="254" y1="-168.666672" x2="254" y2="233.5" gradientTransform="matrix(0.093759,0,0,0.093759,0,20.158173)">
<stop offset="0" style="stop-color:rgb(30.19608%,81.568629%,88.235295%);stop-opacity:1;"/>
<stop offset="1" style="stop-color:rgb(14.901961%,77.64706%,85.490197%);stop-opacity:1;"/>
</linearGradient>
<linearGradient id="linear1" gradientUnits="userSpaceOnUse" x1="254" y1="-168.666672" x2="254" y2="233.5" gradientTransform="matrix(0.093759,0,0,0.093759,0,20.158173)">
<stop offset="0" style="stop-color:rgb(94.117647%,38.431373%,57.254905%);stop-opacity:1;"/>
<stop offset="1" style="stop-color:rgb(92.54902%,25.098041%,47.843137%);stop-opacity:1;"/>
</linearGradient>
<linearGradient id="linear2" gradientUnits="userSpaceOnUse" x1="254" y1="-168.666672" x2="254" y2="233.5" gradientTransform="matrix(0.093759,0,0,0.093759,0,20.158173)">
<stop offset="0" style="stop-color:rgb(100%,54.11765%,39.607844%);stop-opacity:1;"/>
<stop offset="1" style="stop-color:rgb(100%,43.921569%,26.274511%);stop-opacity:1;"/>
</linearGradient>
<radialGradient id="radial0" gradientUnits="userSpaceOnUse" cx="450.908936" cy="189.579361" fx="450.908936" fy="189.579361" r="21.166656" gradientTransform="matrix(0.000000261256,-0.117199,-0.210958,-0.000000152308,66.784728,95.392994)">
<stop offset="0" style="stop-color:rgb(0%,0%,0%);stop-opacity:0.313726;"/>
<stop offset="0.222222" style="stop-color:rgb(0%,0%,0%);stop-opacity:0.27451;"/>
<stop offset="1" style="stop-color:rgb(0%,0%,0%);stop-opacity:0;"/>
</radialGradient>
<radialGradient id="radial1" gradientUnits="userSpaceOnUse" cx="450.908936" cy="189.579361" fx="450.908936" fy="189.579361" r="21.166656" gradientTransform="matrix(-0.000000261256,0.117199,0.210958,0.000000152308,-19.155178,-11.291223)">
<stop offset="0" style="stop-color:rgb(0%,0%,0%);stop-opacity:0.313726;"/>
<stop offset="0.222222" style="stop-color:rgb(0%,0%,0%);stop-opacity:0.27451;"/>
<stop offset="1" style="stop-color:rgb(0%,0%,0%);stop-opacity:0;"/>
</radialGradient>
<radialGradient id="radial2" gradientUnits="userSpaceOnUse" cx="450.908936" cy="189.579361" fx="450.908936" fy="189.579361" r="21.166656" gradientTransform="matrix(-0.000000261256,-0.117199,0.210958,-0.000000152308,-19.155178,95.392994)">
<stop offset="0" style="stop-color:rgb(0%,0%,0%);stop-opacity:0.313726;"/>
<stop offset="0.222222" style="stop-color:rgb(0%,0%,0%);stop-opacity:0.27451;"/>
<stop offset="1" style="stop-color:rgb(0%,0%,0%);stop-opacity:0;"/>
</radialGradient>
<radialGradient id="radial3" gradientUnits="userSpaceOnUse" cx="450.908936" cy="189.579361" fx="450.908936" fy="189.579361" r="21.166656" gradientTransform="matrix(0.000000261256,0.117199,-0.210958,0.000000152308,66.784725,-11.291224)">
<stop offset="0" style="stop-color:rgb(0%,0%,0%);stop-opacity:0.313726;"/>
<stop offset="0.222222" style="stop-color:rgb(0%,0%,0%);stop-opacity:0.27451;"/>
<stop offset="1" style="stop-color:rgb(0%,0%,0%);stop-opacity:0;"/>
</radialGradient>
<linearGradient id="linear3" gradientUnits="userSpaceOnUse" x1="255.323059" y1="233.5" x2="255.323044" y2="254.666656" gradientTransform="matrix(0.0200401,0,0,0.093759,18.698079,20.158175)">
<stop offset="0" style="stop-color:rgb(0%,0%,0%);stop-opacity:0.27451;"/>
<stop offset="1" style="stop-color:rgb(0%,0%,0%);stop-opacity:0;"/>
</linearGradient>
<linearGradient id="linear4" gradientUnits="userSpaceOnUse" x1="254" y1="-168.666672" x2="254" y2="233.5" gradientTransform="matrix(0.093759,0,0,0.093759,0,20.158173)">
<stop offset="0" style="stop-color:rgb(100%,71.764708%,30.19608%);stop-opacity:1;"/>
<stop offset="1" style="stop-color:rgb(100%,65.490198%,14.901961%);stop-opacity:1;"/>
</linearGradient>
</defs>
<g id="surface1">
<path style=" stroke:none;fill-rule:nonzero;fill:url(#linear0);" d="M 23.816406 4.34375 C 18.796875 4.34375 14.246094 6.285156 10.875 9.460938 L 14.925781 13.515625 C 15.210938 13.363281 15.53125 13.273438 15.875 13.273438 L 31.753906 13.273438 C 32.097656 13.273438 32.421875 13.363281 32.703125 13.515625 L 36.753906 9.460938 C 33.382812 6.285156 28.832031 4.34375 23.816406 4.34375 Z M 23.816406 4.34375 "/>
<path style=" stroke:none;fill-rule:nonzero;fill:url(#linear1);" d="M 10.078125 10.257812 C 6.902344 13.628906 4.960938 18.179688 4.960938 23.199219 C 4.960938 28.214844 6.902344 32.765625 10.078125 36.136719 L 14.132812 32.085938 C 13.980469 31.804688 13.890625 31.480469 13.890625 31.136719 L 13.890625 15.257812 C 13.890625 14.914062 13.980469 14.589844 14.132812 14.308594 Z M 10.078125 10.257812 "/>
<path style=" stroke:none;fill-rule:nonzero;fill:url(#linear2);" d="M 37.550781 10.257812 L 33.496094 14.308594 C 33.652344 14.589844 33.738281 14.914062 33.738281 15.257812 L 33.738281 31.136719 C 33.738281 31.480469 33.652344 31.804688 33.496094 32.085938 L 37.550781 36.136719 C 40.726562 32.765625 42.667969 28.214844 42.667969 23.199219 C 42.667969 18.179688 40.726562 13.628906 37.550781 10.257812 Z M 37.550781 10.257812 "/>
<path style=" stroke:none;fill-rule:nonzero;fill:url(#radial0);" d="M 27.289062 42.050781 L 31.257812 42.050781 L 31.257812 40.066406 L 27.289062 40.066406 Z M 27.289062 42.050781 "/>
<path style=" stroke:none;fill-rule:nonzero;fill:url(#radial1);" d="M 20.339844 42.050781 L 16.371094 42.050781 L 16.371094 44.035156 L 20.339844 44.035156 Z M 20.339844 42.050781 "/>
<path style=" stroke:none;fill-rule:nonzero;fill:url(#radial2);" d="M 20.339844 42.050781 L 16.371094 42.050781 L 16.371094 40.066406 L 20.339844 40.066406 Z M 20.339844 42.050781 "/>
<path style=" stroke:none;fill-rule:nonzero;fill:url(#radial3);" d="M 27.289062 42.050781 L 31.257812 42.050781 L 31.257812 44.035156 L 27.289062 44.035156 Z M 27.289062 42.050781 "/>
<path style=" stroke:none;fill-rule:nonzero;fill:url(#linear3);" d="M 20.339844 41.554688 L 27.289062 41.554688 L 27.289062 44.035156 L 20.339844 44.035156 Z M 20.339844 41.554688 "/>
<path style=" stroke:none;fill-rule:nonzero;fill:url(#linear4);" d="M 32.703125 32.878906 C 32.421875 33.035156 32.097656 33.121094 31.753906 33.121094 L 20.378906 33.121094 L 15.25 37.515625 C 14.886719 37.828125 14.320312 37.570312 14.320312 37.089844 L 14.320312 33.484375 L 10.875 36.933594 C 14.246094 40.109375 18.796875 42.050781 23.816406 42.050781 C 28.832031 42.050781 33.382812 40.109375 36.753906 36.933594 Z M 32.703125 32.878906 "/>
<path style=" stroke:none;fill-rule:nonzero;fill:rgb(100%,100%,100%);fill-opacity:0.392157;" d="M 23.816406 4.34375 C 18.796875 4.34375 14.246094 6.285156 10.875 9.460938 L 11.265625 9.851562 C 14.59375 6.886719 18.984375 5.089844 23.816406 5.089844 C 28.644531 5.089844 33.035156 6.886719 36.367188 9.851562 L 36.753906 9.460938 C 33.382812 6.285156 28.832031 4.34375 23.816406 4.34375 Z M 23.816406 4.34375 "/>
<path style=" stroke:none;fill-rule:nonzero;fill:rgb(100%,100%,100%);fill-opacity:0.392157;" d="M 10.078125 10.257812 C 6.902344 13.628906 4.960938 18.179688 4.960938 23.199219 C 4.960938 23.320312 4.964844 23.445312 4.964844 23.570312 C 5.058594 18.699219 6.980469 14.289062 10.078125 11.003906 L 13.933594 14.855469 C 13.972656 14.660156 14.039062 14.476562 14.132812 14.308594 Z M 13.890625 31.136719 L 13.890625 31.878906 C 13.890625 32.019531 13.90625 32.152344 13.933594 32.285156 L 14.132812 32.085938 C 13.980469 31.804688 13.890625 31.480469 13.890625 31.136719 Z M 13.890625 31.136719 "/>
<path style=" stroke:none;fill-rule:nonzero;fill:rgb(100%,100%,100%);fill-opacity:0.392157;" d="M 37.550781 10.257812 L 33.496094 14.308594 C 33.589844 14.476562 33.65625 14.660156 33.695312 14.855469 L 37.550781 11.003906 C 40.648438 14.289062 42.570312 18.699219 42.664062 23.570312 C 42.667969 23.445312 42.667969 23.320312 42.667969 23.199219 C 42.667969 18.179688 40.726562 13.628906 37.550781 10.257812 Z M 33.738281 31.136719 C 33.738281 31.480469 33.652344 31.804688 33.496094 32.085938 L 33.695312 32.285156 C 33.722656 32.152344 33.738281 32.019531 33.738281 31.878906 Z M 33.738281 31.136719 "/>
<path style=" stroke:none;fill-rule:nonzero;fill:rgb(100%,100%,100%);fill-opacity:0.392157;" d="M 32.703125 32.878906 C 32.421875 33.035156 32.097656 33.121094 31.753906 33.121094 L 20.378906 33.121094 L 15.25 37.515625 C 14.886719 37.828125 14.320312 37.570312 14.320312 37.089844 L 14.320312 37.832031 C 14.320312 38.3125 14.886719 38.574219 15.25 38.261719 L 20.378906 33.863281 L 31.753906 33.863281 C 32.097656 33.863281 32.421875 33.777344 32.703125 33.625 L 36.367188 37.289062 C 36.496094 37.171875 36.625 37.054688 36.753906 36.933594 Z M 14.320312 33.484375 L 10.875 36.933594 C 11.003906 37.054688 11.132812 37.171875 11.265625 37.289062 L 14.320312 34.230469 Z M 14.320312 33.484375 "/>
<path style=" stroke:none;fill-rule:nonzero;fill:rgb(0%,0%,0%);fill-opacity:0.235294;" d="M 11.265625 9.105469 C 11.132812 9.222656 11.003906 9.34375 10.875 9.460938 L 14.925781 13.515625 C 15.210938 13.363281 15.53125 13.273438 15.875 13.273438 L 31.753906 13.273438 C 32.097656 13.273438 32.421875 13.363281 32.703125 13.515625 L 36.753906 9.460938 C 36.625 9.34375 36.496094 9.222656 36.367188 9.105469 L 32.703125 12.769531 C 32.421875 12.617188 32.097656 12.53125 31.753906 12.53125 L 15.875 12.53125 C 15.53125 12.53125 15.210938 12.617188 14.925781 12.769531 Z M 13.933594 14.109375 C 13.90625 14.242188 13.890625 14.375 13.890625 14.515625 L 13.890625 15.257812 C 13.890625 14.914062 13.980469 14.589844 14.132812 14.308594 Z M 33.695312 14.109375 L 33.496094 14.308594 C 33.652344 14.589844 33.738281 14.914062 33.738281 15.257812 L 33.738281 14.515625 C 33.738281 14.375 33.722656 14.242188 33.695312 14.109375 Z M 4.964844 22.824219 C 4.964844 22.949219 4.960938 23.074219 4.960938 23.199219 C 4.960938 28.214844 6.902344 32.765625 10.078125 36.136719 L 14.132812 32.085938 C 14.039062 31.917969 13.972656 31.734375 13.933594 31.539062 L 10.078125 35.394531 C 6.980469 32.105469 5.058594 27.695312 4.964844 22.824219 Z M 42.664062 22.824219 C 42.570312 27.695312 40.648438 32.105469 37.550781 35.394531 L 33.695312 31.539062 C 33.65625 31.734375 33.589844 31.917969 33.496094 32.085938 L 37.550781 36.136719 C 40.726562 32.765625 42.667969 28.214844 42.667969 23.199219 C 42.667969 23.074219 42.667969 22.949219 42.664062 22.824219 Z M 11.265625 36.542969 L 10.875 36.933594 C 14.246094 40.109375 18.796875 42.050781 23.816406 42.050781 C 28.832031 42.050781 33.382812 40.109375 36.753906 36.933594 L 36.367188 36.542969 C 33.035156 39.507812 28.644531 41.308594 23.816406 41.308594 C 18.984375 41.308594 14.59375 39.507812 11.265625 36.542969 Z M 11.265625 36.542969 "/>
<path style="fill:none;stroke-width:11.338583;stroke-linecap:round;stroke-linejoin:miter;stroke:rgb(12.941177%,12.941177%,12.941177%);stroke-opacity:1;stroke-miterlimit:4;" d="M 960.065849 175.101398 C 757.722956 175.101398 574.275898 253.361645 438.383356 381.380923 L 601.674858 544.82989 C 613.169824 538.688744 626.081977 535.067042 639.938923 535.067042 L 1280.03531 535.067042 C 1293.892256 535.067042 1306.961874 538.688744 1318.299375 544.82989 L 1481.590876 381.380923 C 1345.698335 253.361645 1162.251276 175.101398 960.065849 175.101398 Z M 960.065849 175.101398 " transform="matrix(0.0248071,0,0,0.0248071,0,0)"/>
<path style="fill:none;stroke-width:11.338583;stroke-linecap:round;stroke-linejoin:miter;stroke:rgb(12.941177%,12.941177%,12.941177%);stroke-opacity:1;stroke-miterlimit:4;" d="M 406.260438 413.503841 C 278.24116 549.396383 199.980913 732.843441 199.980913 935.186334 C 199.980913 1137.371761 278.24116 1320.818819 406.260438 1456.711361 L 569.709405 1293.41986 C 563.568259 1282.082359 559.946557 1269.01274 559.946557 1255.155795 L 559.946557 615.059407 C 559.946557 601.202462 563.568259 588.132843 569.709405 576.795343 Z M 406.260438 413.503841 " transform="matrix(0.0248071,0,0,0.0248071,0,0)"/>
<path style="fill:none;stroke-width:11.338583;stroke-linecap:round;stroke-linejoin:miter;stroke:rgb(12.941177%,12.941177%,12.941177%);stroke-opacity:1;stroke-miterlimit:4;" d="M 1513.713795 413.503841 L 1350.264828 576.795343 C 1356.563439 588.132843 1360.027676 601.202462 1360.027676 615.059407 L 1360.027676 1255.155795 C 1360.027676 1269.01274 1356.563439 1282.082359 1350.264828 1293.41986 L 1513.713795 1456.711361 C 1641.733072 1320.818819 1719.99332 1137.371761 1719.99332 935.186334 C 1719.99332 732.843441 1641.733072 549.396383 1513.713795 413.503841 Z M 1513.713795 413.503841 " transform="matrix(0.0248071,0,0,0.0248071,0,0)"/>
<path style="fill:none;stroke-width:11.338583;stroke-linecap:round;stroke-linejoin:miter;stroke:rgb(12.941177%,12.941177%,12.941177%);stroke-opacity:1;stroke-miterlimit:4;" d="M 1318.299375 1325.385313 C 1306.961874 1331.683924 1293.892256 1335.14816 1280.03531 1335.14816 L 821.496397 1335.14816 L 614.744477 1512.296607 C 600.100205 1524.89383 577.267739 1514.501121 577.267739 1495.132891 L 577.267739 1349.792432 L 438.383356 1488.83428 C 574.275898 1616.853557 757.722956 1695.113804 960.065849 1695.113804 C 1162.251276 1695.113804 1345.698335 1616.853557 1481.590876 1488.83428 Z M 1318.299375 1325.385313 " transform="matrix(0.0248071,0,0,0.0248071,0,0)"/>
</g>
</svg>
